X:1
T: A' Willie, we have missed you
C:
R:Strathspey
Q:128
K:A
M:4/4
L:1/16
|:a2|fB3 f3e fB3 B3a|fB3 B3e aA3 A3a|fB3 f3e f3c d3B|A3F E3e cA3 A3a|
fB3 f3e fB3 B3a|fB3 B3e aA3 A3a|fB3 f3e f3c d3B|A3F E3e cA3 A2D2|
B,FB2 D3B FB,3 B,3D|B,DB2 D3B AA,3 A,3D|B,FB2 D3B F3B d3B|A3F E3F DB,3 B,3D|
B,FB2 D3B FB,3 B,3D|B,DB2 D3B AA,3 A,3D|B,FB2 D3B F3B d3f|agfe a3e cA3 A2:|
